X:10
T:No.20 The Wise Maid
C:reel
M:4/4
L:1/8
K:D
F3F FEDE|FAAB AFED|d2eg fdec|
dBAF BEEG|F3F FEDE|FAAB AFED|
d2eg fdec|[1dBAG FDDE:|[2dBAG FDFA||
d2AG FDFA|dfaf gfeg|fedf edce|
dfed cAA=c|B2GB ADFA|dfaf gfed|
(3Bcd ec dBAG|[1FGEF D2Bc:|[2FGEF D2DE||
